img/about/1.svg

<svg width="36" height="36" viewBox="0 0 36 36" fill="none" xmlns="http://www.w3.org/2000/svg">
<path d="M35.6523 17.2234L33.1024 14.8358C32.1288 13.9317 30.9466 13.3522 29.6948 13.1436C30.4134 12.1005 30.8538 10.8487 30.9002 9.52737L31.0161 6.05023C31.0161 5.74887 30.9234 5.4707 30.7147 5.26207C30.5061 5.05344 30.2279 4.93754 29.9266 4.96072L26.4495 5.07663C25.1281 5.12299 23.8764 5.56343 22.8332 6.28203C22.6014 5.03026 22.0451 3.84804 21.141 2.87444L18.7766 0.324533C18.5679 0.115905 18.2898 0 17.9884 0C17.6871 0 17.4089 0.115905 17.2234 0.324533L14.8358 2.87444C13.9317 3.84804 13.3522 5.03026 13.1436 6.28203C12.1005 5.56343 10.8487 5.12299 9.52737 5.07663L6.05023 4.96072C5.74887 4.96072 5.4707 5.05344 5.26207 5.26207C5.05344 5.4707 4.93754 5.74887 4.96072 6.05023L5.07663 9.52737C5.12299 10.8487 5.56343 12.1005 6.28203 13.1436C5.03026 13.3754 3.84804 13.9317 2.87444 14.8358L0.324533 17.2234C0.115905 17.4321 0 17.7102 0 17.9884C0 18.2898 0.115905 18.5679 0.324533 18.7534C0.324533 18.7534 1.59948 19.9356 2.87444 21.141C3.84804 22.0451 5.03026 22.6246 6.28203 22.8332C5.56343 23.8764 5.12299 25.1281 5.07663 26.4495L4.96072 29.9266C4.96072 30.2279 5.05344 30.5061 5.26207 30.7147C5.4707 30.9234 5.72569 31.0161 6.00386 31.0161C6.02704 31.0161 6.02704 31.0161 6.05023 31.0161C6.05023 31.0161 7.7888 30.9466 9.52737 30.9002C10.8487 30.8538 12.1005 30.4134 13.1436 29.6948C13.3754 30.9466 13.9317 32.1288 14.8358 33.1024L17.2234 35.6523C17.4321 35.8609 17.7102 35.9768 17.9884 35.9768C18.2666 35.9768 18.5679 35.8609 18.7534 35.6523L21.141 33.1024C22.0451 32.1288 22.6246 30.9466 22.8332 29.6948C23.8764 30.4134 25.1281 30.8538 26.4495 30.9002C28.2112 30.9697 29.9266 31.0161 29.9266 31.0161C29.9498 31.0161 29.9498 31.0161 29.973 31.0161C30.2511 31.0161 30.5293 30.9002 30.7147 30.7147C30.9234 30.5061 31.0393 30.2279 31.0161 29.9266L30.9002 26.4495C30.8538 25.1281 30.4134 23.8764 29.6948 22.8332C30.9466 22.6014 32.1288 22.0451 33.1024 21.141C34.3773 19.9356 35.6523 18.7534 35.6523 18.7534C35.8609 18.5448 35.9768 18.2666 35.9768 17.9884C36 17.7102 35.8841 17.4321 35.6523 17.2234Z" fill="#051B10"/>
<path d="M26.519 7.18612L28.8834 7.11658L28.8139 9.48103C28.7443 11.266 27.6316 12.8886 25.9858 13.5609L22.6709 14.9286C22.2537 14.3027 21.7205 13.7695 21.0946 13.3522C21.396 12.6336 21.9291 11.3123 22.4623 10.0374C23.1345 8.36835 24.734 7.25566 26.519 7.18612Z" fill="#166D44"/>
<path d="M17.9884 21.4655C16.0876 21.4655 14.5345 19.9124 14.5345 18.0116C14.5345 16.1107 16.0876 14.5576 17.9884 14.5576C19.8893 14.5576 21.4424 16.1107 21.4424 18.0116C21.4656 19.9124 19.9124 21.4655 17.9884 21.4655Z" fill="white"/>
<path d="M16.3887 4.33483L17.9882 2.61944L19.5877 4.33483C20.8163 5.65614 21.164 7.55698 20.4686 9.22601C19.9354 10.501 19.3791 11.8223 19.1009 12.5409C18.6604 12.4482 17.8491 12.3323 16.8523 12.5409L15.4847 9.22601C14.8124 7.55698 15.1601 5.63296 16.3887 4.33483Z" fill="#166D44"/>
<path d="M9.45789 7.18608C11.2428 7.25562 12.8655 8.36831 13.5377 10.0142L14.9054 13.329C14.2795 13.7463 13.7464 14.2794 13.3291 14.9053L10.0142 13.5377C8.34521 12.8422 7.23252 11.2427 7.18616 9.45781L7.11662 7.09336L9.45789 7.18608Z" fill="#166D44"/>
<path d="M2.59618 17.9884L4.31157 16.3889C5.63288 15.1603 7.53372 14.8126 9.20275 15.508L12.5176 16.8757C12.4249 17.3161 12.309 18.1275 12.5176 19.1243L9.20275 20.4919C7.53372 21.1874 5.63288 20.8396 4.31157 19.6111C3.68568 19.0315 3.08298 18.452 2.59618 17.9884Z" fill="#166D44"/>
<path d="M9.45803 28.8139C8.60033 28.8371 7.74264 28.8834 7.09357 28.8834L7.16311 26.519C7.23266 24.7341 8.34534 23.1114 9.99119 22.4391L13.3061 21.0715C13.7233 21.6974 14.2565 22.2305 14.8824 22.6478L13.5147 25.9626C12.8656 27.6317 11.2661 28.7444 9.45803 28.8139Z" fill="#166D44"/>
<path d="M19.6111 31.6652L18.0116 33.3806L16.4122 31.6652C15.1836 30.3439 14.8359 28.443 15.5313 26.774L16.899 23.4591C17.8957 23.6678 18.7071 23.5519 19.1475 23.4591C19.4489 24.1777 19.982 25.4991 20.5152 26.774C21.1874 28.443 20.8397 30.3671 19.6111 31.6652Z" fill="#166D44"/>
<path d="M26.519 28.8139C24.7341 28.7444 23.1114 27.6317 22.4392 25.9858C21.906 24.7109 21.3497 23.3664 21.0715 22.671C21.6974 22.2537 22.2305 21.7205 22.6478 21.0947L25.9627 22.4623C27.6317 23.1578 28.7444 24.7572 28.7908 26.5422L28.8603 28.9066C28.2344 28.8603 27.3999 28.8371 26.519 28.8139Z" fill="#166D44"/>
<path d="M31.6652 19.6111C30.3439 20.8396 28.443 21.1874 26.774 20.4919L23.4591 19.1243C23.6677 18.1275 23.5518 17.3161 23.4591 16.8757L26.774 15.508C28.443 14.8126 30.3439 15.1603 31.6652 16.3889L33.3806 17.9884C32.9169 18.452 32.2911 19.0315 31.6652 19.6111Z" fill="#166D44"/>
</svg>

<svg width="36" height="36" fill="none" xmlns="http://www.w3.org/2000/svg"><path d="M35.652 17.223l-2.55-2.387a6.601 6.601 0 00-3.407-1.692A6.81 6.81 0 0030.9 9.527l.116-3.477c0-.301-.093-.58-.301-.788a.997.997 0 00-.788-.301l-3.477.116a6.81 6.81 0 00-3.617 1.205 6.783 6.783 0 00-1.692-3.408L18.777.324A1.104 1.104 0 0017.988 0c-.3 0-.58.116-.765.325l-2.387 2.55a6.601 6.601 0 00-1.692 3.407 6.81 6.81 0 00-3.617-1.205L6.05 4.96c-.301 0-.58.092-.788.301a.998.998 0 00-.301.788l.116 3.477a6.81 6.81 0 001.205 3.617 6.783 6.783 0 00-3.408 1.692l-2.55 2.387a1.09 1.09 0 00-.324.765c0 .302.116.58.325.765 0 0 1.274 1.183 2.55 2.388a6.601 6.601 0 003.407 1.692 6.81 6.81 0 00-1.205 3.617l-.116 3.477c0 .3.092.58.301.788.209.208.464.301.742.301h.046s1.739-.07 3.477-.116a6.81 6.81 0 003.617-1.205 6.783 6.783 0 001.692 3.407l2.387 2.55c.21.209.487.325.765.325.279 0 .58-.116.765-.325l2.388-2.55a6.601 6.601 0 001.692-3.407A6.81 6.81 0 0026.45 30.9c1.761.07 3.477.116 3.477.116h.046c.278 0 .556-.116.742-.301a.997.997 0 00.301-.788L30.9 26.45a6.81 6.81 0 00-1.205-3.617 6.783 6.783 0 003.407-1.692c1.275-1.205 2.55-2.388 2.55-2.388a1.09 1.09 0 00.325-.765.927.927 0 00-.325-.765z" fill="#051B10"/><path d="M26.52 7.186l2.364-.07-.07 2.365c-.07 1.785-1.182 3.408-2.828 4.08l-3.315 1.368a5.67 5.67 0 00-1.576-1.577c.301-.718.834-2.04 1.367-3.315a4.571 4.571 0 014.057-2.85z" fill="#166D44"/><path d="M17.988 21.465a3.463 3.463 0 01-3.454-3.453 3.462 3.462 0 013.454-3.454 3.462 3.462 0 013.454 3.454c.023 1.9-1.53 3.453-3.454 3.453z" fill="#fff"/><path d="M16.389 4.335l1.6-1.716 1.599 1.716a4.578 4.578 0 01.88 4.891c-.532 1.275-1.089 2.596-1.367 3.315a5.461 5.461 0 00-2.248 0l-1.368-3.315c-.672-1.669-.325-3.593.904-4.891zM9.457 7.186c1.785.07 3.408 1.182 4.08 2.828l1.368 3.315a5.67 5.67 0 00-1.576 1.576l-3.315-1.367c-1.67-.696-2.782-2.295-2.828-4.08l-.07-2.365 2.341.093zM2.596 17.988l1.715-1.6a4.578 4.578 0 014.891-.88l3.315 1.368a5.462 5.462 0 000 2.248l-3.315 1.368a4.578 4.578 0 01-4.89-.88c-.627-.58-1.23-1.16-1.716-1.624zm6.862 10.826c-.857.023-1.715.07-2.364.07l.07-2.365c.069-1.785 1.182-3.408 2.827-4.08l3.315-1.368a5.67 5.67 0 001.577 1.577l-1.368 3.315c-.65 1.669-2.249 2.781-4.057 2.85zm10.154 2.851l-1.6 1.715-1.6-1.715a4.578 4.578 0 01-.88-4.891l1.367-3.315a5.461 5.461 0 002.249 0c.301.719.834 2.04 1.368 3.315.672 1.669.324 3.593-.904 4.891zm6.907-2.851c-1.785-.07-3.408-1.182-4.08-2.828-.533-1.275-1.09-2.62-1.368-3.315a5.67 5.67 0 001.577-1.576l3.314 1.367c1.67.696 2.782 2.295 2.829 4.08l.07 2.365a53.42 53.42 0 00-2.342-.093zm5.146-9.203a4.577 4.577 0 01-4.891.88l-3.315-1.367a5.462 5.462 0 000-2.248l3.315-1.368a4.577 4.577 0 014.891.88l1.715 1.6c-.463.464-1.09 1.044-1.715 1.623z" fill="#166D44"/></svg>
